X:1
T:Title
%%score { ( 1 4 ) | ( 2 3 ) }
L:1/8
M:4/4
K:A
V:1 treble nm="Grand Piano"
V:4 treble 
V:2 bass 
V:3 bass 
V:1
 z4 z2[Q:1/4=100] A2 | A3 F [CE]2 [E=G]2 | [DF]4 z2 [Fd]2 | d3 d B2 d2 | [=GB]2 A2 z2 [A,DF]2 | %5
 [B,EG]3 [B,EG] [A,EA]3 [A,EA] | [EB]2 cd [Ec]2 [EA]2 | [Fc]3 [B,FB] [CEA]2 [B,DG]2 | %8
[M:3/4] [A,CA]6 |[M:1/4] BA |[M:4/4] =G6 z2 | F6 z2 | [A,DF]4 [A,CE]4 |[M:3/4] [A,DF]6 |] %14
V:2
 z4 z2 [D,F,D]2 | [D,F,D]3 [D,A,D] [A,,A,]2 [A,,A,]2 | [D,A,]4 z2 [D,A,]2 | %3
 [=G,B,=G]3 [G,B,G] [G,DG]2 [G,B,G]2 | z2 F2 z2[K:bass] D,2 | D,3 D, C,3 C, | %6
 [B,,G,]2 [E,G,E]2 [A,,A,]2 [C,A,]2 | [D,A,]3 D, E,2 E,2 |[M:3/4] A,,6 |[M:1/4][K:treble] =GE | %10
[M:4/4] E6[K:bass] z2 | D6 z2 | A,,4 A,,4 |[M:3/4] D,6 |] %14
V:3
 x8 | x8 | x8 | x8 | [D,D]4 z4[K:bass] | x8 | x8 | x8 |[M:3/4] x6 |[M:1/4][K:treble] x2 | %10
[M:4/4] z2[K:bass] A,,2 A,,2 C2 | z2 D,2 D,2 =G,,2 | x8 |[M:3/4] x6 |] %14
V:4
 x8 | x8 | x8 | x8 | x8 | x8 | x8 | x8 |[M:3/4] x6 |[M:1/4] x2 |[M:4/4] z2 A,2 A,2 A2 | %11
 z2 A,2 A,2 [B,E=G]2 | x8 |[M:3/4] x6 |] %14

